icons/officer_fill.svg

<svg width="48" height="48" viewBox="0 0 48 48" fill="none" xmlns="http://www.w3.org/2000/svg">
<path fill-rule="evenodd" clip-rule="evenodd" d="M13.5 10.0968C13.5 7.77419 24 6 24 6C24 6 34.5 7.77419 34.5 10.0968C34.5 13.1939 32.5909 14.5 32.5909 14.5H15.4091C15.4091 14.5 13.5 13.1935 13.5 10.0968ZM26 9.56667C26 9.56667 24.5333 9.03333 24 8.5C23.4667 9.03333 22 9.56667 22 9.56667C22 9.56667 22.4 12.5 24 12.5C25.6 12.5 26 9.56667 26 9.56667Z" fill="black"/>
<path fill-rule="evenodd" clip-rule="evenodd" d="M31.8143 18.2794C33.2047 17.1955 32.9877 16 32.9877 16H15.0123C15.0123 16 14.7953 17.1955 16.1857 18.2794C16.064 18.8342 16 19.41 16 20C16 24.4183 19.5817 28 24 28C28.4183 28 32 24.4183 32 20C32 19.41 31.936 18.8342 31.8143 18.2794ZM24 20C26.7215 20 28.6235 19.6861 29.9517 19.234C29.9835 19.4846 30 19.7403 30 20C30 23.3137 27.3137 26 24 26C20.6863 26 18 23.3137 18 20C18 19.7403 18.0165 19.4846 18.0483 19.234C19.3765 19.6861 21.2785 20 24 20Z" fill="black"/>
<path fill-rule="evenodd" clip-rule="evenodd" d="M16.8786 28L23.3557 33.4571C23.728 33.7708 24.272 33.7708 24.6443 33.4571L31.1214 28C31.1214 28 42 31.3932 42 35.4669V42.0002H6V35.4669C6 31.3932 16.8786 28 16.8786 28ZM12.7253 37.2072C12.296 37.0846 12 36.6922 12 36.2457V35H19V36.2457C19 36.6922 18.704 37.0846 18.2747 37.2072L15.7747 37.9215C15.5952 37.9728 15.4048 37.9728 15.2253 37.9215L12.7253 37.2072ZM33.6645 33.1253C33.6127 32.9582 33.3873 32.9582 33.3355 33.1253L32.8639 34.6458C32.8407 34.7205 32.7743 34.771 32.6994 34.771H31.1733C31.0058 34.771 30.936 34.9957 31.0717 35.0989L32.3063 36.0387C32.3669 36.0849 32.3922 36.1666 32.3691 36.2413L31.8975 37.7619C31.8457 37.9288 32.0281 38.0678 32.1638 37.9646L33.3984 37.0248C33.459 36.9786 33.5411 36.9786 33.6017 37.0248L34.8362 37.9646C34.9719 38.0678 35.1543 37.9288 35.1025 37.7619L34.6309 36.2413C34.6078 36.1666 34.6332 36.0849 34.6938 36.0387L35.9283 35.0989C36.064 34.9957 35.9942 34.771 35.8267 34.771H34.3006C34.2257 34.771 34.1593 34.7205 34.1361 34.6458L33.6645 33.1253Z" fill="black"/>
</svg>

<svg
  xmlns="http://www.w3.org/2000/svg"
  width="24"
  height="24"
  viewBox="0 0 24 24"
  fill="none"
  stroke="currentColor"
  stroke-width="2"
  stroke-linecap="round"
  stroke-linejoin="round"
>
  <path
    fill-rule="evenodd"
    d="M13.5 10.097C13.5 7.774 24 6 24 6s10.5 1.774 10.5 4.097c0 3.097-1.91 4.403-1.91 4.403H15.41s-1.91-1.306-1.91-4.403m12.5-.53s-1.467-.534-2-1.067c-.533.533-2 1.067-2 1.067s.4 2.933 2 2.933 2-2.933 2-2.933"
    clip-rule="evenodd"
  />
  <path
    fill-rule="evenodd"
    d="M31.814 18.28c1.39-1.085 1.174-2.28 1.174-2.28H15.012s-.217 1.195 1.174 2.28a8 8 0 1 0 15.629 0M24 20c2.721 0 4.624-.314 5.952-.766q.047.376.048.766a6 6 0 1 1-11.952-.766c1.329.452 3.23.766 5.952.766"
    clip-rule="evenodd"
  />
  <path
    fill-rule="evenodd"
    d="m16.879 28 6.477 5.457a1 1 0 0 0 1.288 0L31.121 28S42 31.393 42 35.467V42H6v-6.533C6 31.393 16.879 28 16.879 28m-4.154 9.207a1 1 0 0 1-.725-.961V35h7v1.246a1 1 0 0 1-.725.961l-2.5.715a1 1 0 0 1-.55 0zm20.94-4.082a.17.17 0 0 0-.33 0l-.471 1.52a.174.174 0 0 1-.165.126h-1.526c-.167 0-.237.225-.101.328l1.234.94c.06.046.086.128.063.202l-.471 1.52c-.052.168.13.307.266.204l1.234-.94a.166.166 0 0 1 .204 0l1.234.94c.136.103.318-.036.267-.203l-.472-1.52a.19.19 0 0 1 .063-.203l1.234-.94c.136-.103.066-.328-.101-.328H34.3a.174.174 0 0 1-.165-.125z"
    clip-rule="evenodd"
  />
</svg>
